src/topics/icons/lumen.svg

<svg height="515" preserveAspectRatio="xMidYMid" viewBox="0 0 256 515" width="256" xmlns="http://www.w3.org/2000/svg"><path d="m15.1140942 142.743291c2.132 0 4.298-.453 6.357-1.411l225.7909998-104.9849999c7.563-3.517 10.843-12.498 7.326-20.06-3.515-7.56200003-12.499-10.84200003-20.059-7.32600003l-225.79099977 104.98599993c-7.563 3.516-10.843 12.497-7.326 20.059 2.558 5.502 8.009 8.737 13.70199997 8.737zm219.4152998-69.6037999-225.79099977 104.9859999c-7.563 3.516-10.843 12.496-7.326 20.058 2.557 5.503 8.008 8.738 13.70199997 8.738 2.132 0 4.297-.453 6.357-1.412l225.7909998-104.984c7.563-3.5169999 10.843-12.4979999 7.326-20.0599999-3.515-7.562-12.499-10.842-20.059-7.326zm0 64.7172999-225.79099977 104.986c-7.563 3.516-10.843 12.496-7.326 20.058 2.557 5.503 8.008 8.738 13.70199997 8.738 2.132 0 4.297-.453 6.357-1.412l225.7909998-104.984c7.563-3.517 10.843-12.498 7.326-20.06-3.515-7.562-12.499-10.842-20.059-7.326zm-219.4152998-59.1113999c2.137 0 4.308-.456 6.373-1.418l104.0869998-48.538c7.559-3.524 10.828-12.509 7.304-20.06800003-3.526-7.559-12.511-10.826-20.069-7.304l-104.08699977 48.53800003c-7.558 3.525-10.828 12.51-7.304 20.068 2.563 5.495 8.009 8.722 13.69599997 8.722zm219.3574998 123.3157999-79.818 37.522c-5.295 2.489-8.676 7.815-8.676 13.666v75.374h-34.876v-56.268c0-8.341-6.76-15.101-15.0999998-15.101-8.341 0-15.101 6.76-15.101 15.101v56.268h-21.642c-6.426 0-11.287 5.814-10.148 12.139l5.094 28.275c.884 4.911 5.158 8.483 10.148 8.483h52.9819998l-56.1199998 10.19c-4.103.744-6.825 4.675-6.08 8.777.663 3.646 3.841 6.204 7.421 6.204.448 0 .902-.04 1.358-.124l128.7149998-23.372c2.004-.363 3.669-1.494 4.772-3.027 2.666-1.512 4.62-4.173 5.115-7.385l4.367-28.276c.964-6.247-3.869-11.884-10.191-11.884h-20.513v-65.786l71.142-33.444c7.547-3.548 10.789-12.543 7.241-20.09-3.547-7.544-12.539-10.79-20.09-7.242zm-44.5407 200.75-128.7149998 23.369c-4.104.744-6.826 4.675-6.081 8.777.662 3.647 3.84 6.204 7.421 6.204.446 0 .901-.04 1.356-.124l128.7159998-23.37c4.103-.743 6.825-4.674 6.08-8.776s-4.671-6.838-8.777-6.08zm0 39.909-128.7149998 23.369c-4.104.744-6.826 4.675-6.081 8.777.662 3.647 3.84 6.204 7.421 6.204.446 0 .901-.04 1.356-.124l128.7159998-23.37c4.103-.743 6.825-4.674 6.08-8.776s-4.671-6.838-8.777-6.08zm-15.3935 40.2546-95.9969998 16.54c-4.109.707-6.867 4.613-6.159 8.723.633 3.674 3.824 6.27 7.432 6.27.426 0 .857-.038 1.29-.112l95.9979998-16.539c4.109-.708 6.867-4.614 6.159-8.724-.707-4.106-4.605-6.851-8.723-6.158z" fill="#e54537"/></svg>

<?xml version="1.0" encoding="UTF-8" standalone="no"?>
<svg width="256px" height="515px" viewBox="0 0 256 515" version="1.1" xmlns="http://www.w3.org/2000/svg" xmlns:xlink="http://www.w3.org/1999/xlink" preserveAspectRatio="xMidYMid">
    <g>
        <path d="M15.1140942,142.743291 C17.2460942,142.743291 19.4120942,142.290291 21.4710942,141.332291 L247.262094,36.3472911 C254.825094,32.8302911 258.105094,23.8492911 254.588094,16.2872911 C251.073094,8.72529107 242.089094,5.44529107 234.529094,8.96129107 L8.73809423,113.947291 C1.17509423,117.463291 -2.10490577,126.444291 1.41209423,134.006291 C3.97009423,139.508291 9.42109423,142.743291 15.1140942,142.743291 Z M234.529394,73.1394911 L8.73839423,178.125491 C1.17539423,181.641491 -2.10460577,190.621491 1.41239423,198.183491 C3.96939423,203.686491 9.42039423,206.921491 15.1143942,206.921491 C17.2463942,206.921491 19.4113942,206.468491 21.4713942,205.509491 L247.262394,100.525491 C254.825394,97.0084911 258.105394,88.0274911 254.588394,80.4654911 C251.073394,72.9034911 242.089394,69.6234911 234.529394,73.1394911 Z M234.529394,137.856791 L8.73839423,242.842791 C1.17539423,246.358791 -2.10460577,255.338791 1.41239423,262.900791 C3.96939423,268.403791 9.42039423,271.638791 15.1143942,271.638791 C17.2463942,271.638791 19.4113942,271.185791 21.4713942,270.226791 L247.262394,165.242791 C254.825394,161.725791 258.105394,152.744791 254.588394,145.182791 C251.073394,137.620791 242.089394,134.340791 234.529394,137.856791 Z M15.1140942,78.7453911 C17.2510942,78.7453911 19.4220942,78.2893911 21.4870942,77.3273911 L125.574094,28.7893911 C133.133094,25.2653911 136.402094,16.2803911 132.878094,8.72139107 C129.352094,1.16239107 120.367094,-2.10460893 112.809094,1.41739107 L8.72209423,49.9553911 C1.16409423,53.4803911 -2.10590577,62.4653911 1.41809423,70.0233911 C3.98109423,75.5183911 9.42709423,78.7453911 15.1140942,78.7453911 Z M234.471594,202.061191 L154.653594,239.583191 C149.358594,242.072191 145.977594,247.398191 145.977594,253.249191 L145.977594,328.623191 L111.101594,328.623191 L111.101594,272.355191 C111.101594,264.014191 104.341594,257.254191 96.0015942,257.254191 C87.6605942,257.254191 80.9005942,264.014191 80.9005942,272.355191 L80.9005942,328.623191 L59.2585942,328.623191 C52.8325942,328.623191 47.9715942,334.437191 49.1105942,340.762191 L54.2045942,369.037191 C55.0885942,373.948191 59.3625942,377.520191 64.3525942,377.520191 L117.334594,377.520191 L61.2145942,387.710191 C57.1115942,388.454191 54.3895942,392.385191 55.1345942,396.487191 C55.7975942,400.133191 58.9755942,402.691191 62.5555942,402.691191 C63.0035942,402.691191 63.4575942,402.651191 63.9135942,402.567191 L192.628594,379.195191 C194.632594,378.832191 196.297594,377.701191 197.400594,376.168191 C200.066594,374.656191 202.020594,371.995191 202.515594,368.783191 L206.882594,340.507191 C207.846594,334.260191 203.013594,328.623191 196.691594,328.623191 L176.178594,328.623191 L176.178594,262.837191 L247.320594,229.393191 C254.867594,225.845191 258.109594,216.850191 254.561594,209.303191 C251.014594,201.759191 242.022594,198.513191 234.471594,202.061191 Z M189.930894,402.811191 L61.2158942,426.180191 C57.1118942,426.924191 54.3898942,430.855191 55.1348942,434.957191 C55.7968942,438.604191 58.9748942,441.161191 62.5558942,441.161191 C63.0018942,441.161191 63.4568942,441.121191 63.9118942,441.037191 L192.627894,417.667191 C196.730894,416.924191 199.452894,412.993191 198.707894,408.891191 C197.962894,404.789191 194.036894,402.053191 189.930894,402.811191 Z M189.930894,442.720191 L61.2158942,466.089191 C57.1118942,466.833191 54.3898942,470.764191 55.1348942,474.866191 C55.7968942,478.513191 58.9748942,481.070191 62.5558942,481.070191 C63.0018942,481.070191 63.4568942,481.030191 63.9118942,480.946191 L192.627894,457.576191 C196.730894,456.833191 199.452894,452.902191 198.707894,448.800191 C197.962894,444.698191 194.036894,441.962191 189.930894,442.720191 Z M174.537394,482.974791 L78.5403942,499.514791 C74.4313942,500.221791 71.6733942,504.127791 72.3813942,508.237791 C73.0143942,511.911791 76.2053942,514.507791 79.8133942,514.507791 C80.2393942,514.507791 80.6703942,514.469791 81.1033942,514.395791 L177.101394,497.856791 C181.210394,497.148791 183.968394,493.242791 183.260394,489.132791 C182.553394,485.026791 178.655394,482.281791 174.537394,482.974791 Z" fill="#E54537"></path>
    </g>
</svg>
